X:1
T:Polska efter Thorsj
R:Polska
Z:Jonas Brunskog, 14/7 2008
O:Markaryd, Smland
S:efter Nils Bernhard Ljunggren
S:efter Hjalmar Thorsj
B:Svenska Ltar
N:Sv. L. Sm. 216
N:Ljunggren hade lten efter Hjalmar Thorsj.
M:3/4
L:1/16
K:Bb
|:B2d2 F2B2 d2f2|ecAc ecAc ecAc|B2d2 F2B2 d2f2|ecAc c2B2 B4:|
|:B2bb b2BB B2B2|B2gg g2EE E2E2|B2d2 F2B2 d2f2|ecAc c2B2 B4:|
